svg/u1f49d.svg

<svg viewBox="0 0 128 128" xmlns="http://www.w3.org/2000/svg">
  <g>
    <g>
      <path d="M94.92,8.96c-21.91,0-29.96,22.39-29.96,22.39S57.02,8.96,34.95,8.96 c-16.58,0-35.48,13.14-28.5,43.01c6.98,29.87,58.56,67.08,58.56,67.08s51.39-37.21,58.38-67.08 C130.38,22.1,112.83,8.96,94.92,8.96z" fill="#EF5592"/>
      <g>
        <path d="M31.57,11.19c17.2,0,25.74,18.49,28.5,25.98c0.39,1.07,1.88,1.1,2.33,0.06l2.52-5.88 C61.37,20,51.62,8.96,34.95,8.96c-6.9,0-14.19,2.28-19.86,7.09C20.1,12.76,25.97,11.19,31.57,11.19z" fill="#DA2E75"/>
        <path d="M94.92,8.96c-5.42,0-9.98,1.37-13.79,3.43c2.64-1.01,5.84-1.2,9.07-1.2 c16.21,0,30.72,12.29,24.17,40.7c-5.62,24.39-38.46,53.98-48.49,65.27c-0.22,0.25-0.4,0.91-0.54,1.65 c4.31-3.17,51.4-38.35,58.06-66.85C130.38,22.1,112.83,8.96,94.92,8.96z" fill="#DA2E75"/>
      </g>
      <path d="M78.09,34.65c-1.76,0-3-1.7-2.36-3.34c1.19-3.02,2.73-5.94,4.58-8.54 c2.74-3.84,7.95-6.08,11.25-3.75c3.38,2.38,2.94,7.14,0.57,9.44C87.03,33.39,80.62,34.65,78.09,34.65z" fill="#F386AB"/>
    </g>
    <path d="M15.22,48.24c-0.01-0.25-1.72-4.23-2.09-9c-0.42-5.37,1.71-11.01,4.34-14.74 c2.49-3.54,7.16-7.28,11.48-5.26c1.41,0.66,2.45,2.16,2.33,3.71c-0.12,1.46-1.2,2.77-2.21,3.75c-1.23,1.21-2.65,2.18-3.96,3.28 C17.78,36.12,15.06,44.65,15.22,48.24z" fill="#F386AB"/>
    <path d="M6.45,51.96C7.37,55.88,9.06,59.93,11.3,64h107.27c2.23-4.07,3.92-8.12,4.83-12.03 c0.51-2.17,0.87-4.23,1.13-6.23H5.35C5.59,47.73,5.95,49.8,6.45,51.96z" fill="#FFC107"/>
    <path d="M65.4,68.4c-7.98-4.8-16.51-13.35-21.54-19.64l-19.65,5.41c1.03,7.99-1.07,26.6-1.07,26.6l3.12,3.58 l4.77-3.3l8.56,5.7c1.12,0.95,1.55,0.53,1.74-0.28c0.9-3.77,0.85-9.98,0.02-16.27c4.63,6.4,10.27,11.88,14.1,14.14 c0.71,0.42,1.47,0.16,1.66-0.87l0.26-9.98l7.77-3.36C65.96,69.92,66.12,68.83,65.4,68.4z" fill="#DA2E75"/>
    <path d="M28.63,49.75l16.38-2.14c5.03,6.29,13.71,13.64,21.7,18.44c0.72,0.43,0.56,1.51-0.25,1.73 l-6.87,3.41l-0.08,9.66c0.17,0.81-0.71,1.43-1.42,1.01c-4.88-2.88-12.28-9.58-18.73-16.01S28.63,49.75,28.63,49.75z" fill="#FFE02E"/>
    <path d="M35.29,43.88L22.36,54.17c1.03,7.99,0.27,19.34-1.82,28.42c-0.19,0.82,0.7,1.46,1.42,1.02 l7.23-2.56l7,6.65c0.47,0.69,1.52,0.49,1.72-0.32c1.32-5.51,1.65-15.48,1.51-24.59S35.29,43.88,35.29,43.88z" fill="#FFE02E"/>
    <path d="M50.45,53.49c-2.06-1.99-3.92-3.99-5.43-5.88l-9.73-3.72L22.36,54.17 c0.38,2.98,0.52,6.42,0.43,10.04c2.7,0.81,9.5,3.32,16.53,9.58c0.09-2.56,0.13-5.22,0.12-7.87c0.22,0.22,0.45,0.44,0.67,0.67 c-1.07-1.07-3.32-3.41-4.5-5.22C35.61,61.38,45.86,58.71,50.45,53.49z" fill="#FFC107"/>
    <g>
      <path d="M16.59,73.11c-3.54,0.98-7.96-5.44-11.22-13.07S2.53,45.91,4.76,45.29 c3.39-1.66,7.4-1.94,12.63-1.65c3.39,0.52,6.85,1.5,9.93,2.56c3.47,1.19,3.87,10.86,3.87,10.86 C25.47,67.16,21.55,71.74,16.59,73.11z" fill="#FFE02E"/>
      <path d="M30.25,56.07c0,0-10.17,6.29-13.37,9.23c-4.52,4.15-4.74,7.12-1.96,7.78 c7.46,1.78,16.4-15.68,16.4-15.68L30.25,56.07z" fill="#FFA000"/>
    </g>
    <g>
      <path d="M56.78,54.67c3.17-1.86,1.72-9.53-1.4-17.21s-8.03-11.94-10.03-10.77 c-3.55,1.27-6.55,3.96-10.02,7.92c-2,2.8-3.73,5.97-5.14,8.92c-1.59,3.33,4.99,10.39,4.99,10.39 C46.34,56.88,52.34,57.27,56.78,54.67z" fill="#FFE02E"/>
      <path d="M35.13,52.55c0,0,11.59-2.9,15.91-3.15c6.11-0.34,8.37,1.58,6.89,4.04 c-3.96,6.61-22.6,0.8-22.6,0.8L35.13,52.55z" fill="#FFA000"/>
    </g>
    <path d="M118.56,64c2.23-4.07,3.92-8.12,4.83-12.03c0.51-2.17,0.87-4.23,1.13-6.23H62.26 c0.6,8.34-3.57,10.38-3.57,10.38L67.17,64H118.56z" fill="#FFE02E"/>
    <path d="M58.11,53.46c1.99-2.87-0.59-11.13-2.58-15.99c-3.14-7.69-8.09-11.94-10.1-10.77 c-0.01,0-0.02,0.01-0.03,0.01c-1.43,0.51-1.92,2.37-0.89,3.49c7.1,7.75,4.59,9.6,7.33,15.02c1.59,3.15,3.31,3.5,5.02,4.83 C58.85,51.6,58.11,53.46,58.11,53.46z" fill="#FFF685"/>
    <path d="M114.36,51.89c-0.91,3.93-2.53,8-4.64,12.11h8.84c2.23-4.07,3.92-8.12,4.83-12.03 c0.51-2.17,0.87-4.23,1.13-6.23h-9.04C115.22,47.7,114.86,49.74,114.36,51.89z" fill="#FFA000"/>
    <path d="M30.48,56.98c-3.4-1.52-5.39-6.84-5.67-9.67c-0.28-2.84,4.2-4.8,5.19-4.19 c1,0.61,6.15,9.57,6.15,10.93S32.69,57.97,30.48,56.98z" fill="#FFF685"/>
    <path d="M15.46,61.59c-0.24-2.51-1.85-4.71-2.2-5.65c-0.99-2.67-1.64-5.47-1.88-8.31 c-0.15-1.71,0.15-3.47-2.02-3.48c-2.06,0-3.3,0.58-4.04,1.65c-1.42,2.05-0.7,7.99,1.85,13.86c2.16,4.98,5.9,10.06,5.9,10.06 S15.82,65.31,15.46,61.59z" fill="#FFF685"/>
  </g>
</svg>

<svg viewBox="0 0 128 128" xmlns="http://www.w3.org/2000/svg">
  <defs/>
  <path d="M94.92,8.96 C73.01,8.96 64.96,31.35 64.96,31.35 C64.96,31.35 57.02,8.96 34.95,8.96 C18.37,8.96 -0.53,22.1 6.45,51.97 C13.43,81.84 65.01,119.05 65.01,119.05 C65.01,119.05 116.4,81.84 123.39,51.97 C130.38,22.1 112.83,8.96 94.92,8.96 Z" fill="#EF5592"/>
  <path d="M31.57,11.19 C48.77,11.19 57.31,29.68 60.07,37.17 C60.46,38.24 61.95,38.27 62.4,37.23 L64.92,31.35 C61.37,20 51.62,8.96 34.95,8.96 C28.05,8.96 20.76,11.24 15.09,16.05 C20.1,12.76 25.97,11.19 31.57,11.19 Z" fill="#DA2E75"/>
  <path d="M94.92,8.96 C89.5,8.96 84.94,10.33 81.13,12.39 C83.77,11.38 86.97,11.19 90.2,11.19 C106.41,11.19 120.92,23.48 114.37,51.89 C108.75,76.28 75.91,105.87 65.88,117.16 C65.66,117.41 65.48,118.07 65.34,118.81 C69.65,115.64 116.74,80.46 123.4,51.96 C130.38,22.1 112.83,8.96 94.92,8.96 Z" fill="#DA2E75"/>
  <path d="M78.09,34.65 C76.33,34.65 75.09,32.95 75.73,31.31 C76.92,28.29 78.46,25.37 80.31,22.77 C83.05,18.93 88.26,16.69 91.56,19.02 C94.94,21.4 94.5,26.16 92.13,28.46 C87.03,33.39 80.62,34.65 78.09,34.65 Z" fill="#F386AB"/>
  <path d="M15.22,48.24 C15.21,47.99 13.5,44.01 13.13,39.24 C12.71,33.87 14.84,28.23 17.47,24.5 C19.96,20.96 24.63,17.22 28.95,19.24 C30.36,19.9 31.4,21.4 31.28,22.95 C31.16,24.41 30.08,25.72 29.07,26.7 C27.84,27.91 26.42,28.88 25.11,29.98 C17.78,36.12 15.06,44.65 15.22,48.24 Z" fill="#F386AB"/>
  <path d="M6.45,51.96 C7.37,55.88 9.06,59.93 11.3,64 L118.57,64 C120.8,59.93 122.49,55.88 123.4,51.97 C123.91,49.8 124.27,47.74 124.53,45.74 L5.35,45.74 C5.59,47.73 5.95,49.8 6.45,51.96 Z" fill="#FFC107"/>
  <path d="M65.4,68.4 C57.42,63.6 48.89,55.05 43.86,48.76 L24.21,54.17 C25.24,62.16 23.14,80.77 23.14,80.77 L26.26,84.35 L31.03,81.05 L39.59,86.75 C40.71,87.7 41.14,87.28 41.33,86.47 C42.23,82.7 42.18,76.49 41.35,70.2 C45.98,76.6 51.62,82.08 55.45,84.34 C56.16,84.76 56.92,84.5 57.11,83.47 L57.37,73.49 L65.14,70.13 C65.96,69.92 66.12,68.83 65.4,68.4 Z" fill="#DA2E75"/>
  <path d="M28.63,49.75 L45.01,47.61 C50.04,53.9 58.72,61.25 66.71,66.05 C67.43,66.48 67.27,67.56 66.46,67.78 L59.59,71.19 L59.51,80.85 C59.68,81.66 58.8,82.28 58.09,81.86 C53.21,78.98 45.81,72.28 39.36,65.85 C32.91,59.42 28.63,49.75 28.63,49.75 Z" fill="#FFE02E"/>
  <path d="M35.29,43.88 L22.36,54.17 C23.39,62.16 22.63,73.51 20.54,82.59 C20.35,83.41 21.24,84.05 21.96,83.61 L29.19,81.05 L36.19,87.7 C36.66,88.39 37.71,88.19 37.91,87.38 C39.23,81.87 39.56,71.9 39.42,62.79 C39.28,53.68 35.29,43.88 35.29,43.88 Z" fill="#FFE02E"/>
  <path d="M50.45,53.49 C48.39,51.5 46.53,49.5 45.02,47.61 L35.29,43.89 L22.36,54.17 C22.74,57.15 22.88,60.59 22.79,64.21 C25.49,65.02 32.29,67.53 39.32,73.79 C39.41,71.23 39.45,68.57 39.44,65.92 C39.66,66.14 39.89,66.36 40.11,66.59 C39.04,65.52 36.79,63.18 35.61,61.37 C35.61,61.38 45.86,58.71 50.45,53.49 Z" fill="#FFC107"/>
  <path d="M16.59,73.11 C13.05,74.09 8.63,67.67 5.37,60.04 C2.11,52.41 2.53,45.91 4.76,45.29 C8.15,43.63 12.16,43.35 17.39,43.64 C20.78,44.16 24.24,45.14 27.32,46.2 C30.79,47.39 31.19,57.06 31.19,57.06 C25.47,67.16 21.55,71.74 16.59,73.11 Z" fill="#FFE02E"/>
  <path d="M30.25,56.07 C30.25,56.07 20.08,62.36 16.88,65.3 C12.36,69.45 12.14,72.42 14.92,73.08 C22.38,74.86 31.32,57.4 31.32,57.4 L30.25,56.07 Z" fill="#FFA000"/>
  <path d="M56.78,54.67 C59.95,52.81 58.5,45.14 55.38,37.46 C52.26,29.78 47.35,25.52 45.35,26.69 C41.8,27.96 38.8,30.65 35.33,34.61 C33.33,37.41 31.6,40.58 30.19,43.53 C28.6,46.86 35.18,53.92 35.18,53.92 C46.34,56.88 52.34,57.27 56.78,54.67 Z" fill="#FFE02E"/>
  <path d="M35.13,52.55 C35.13,52.55 46.72,49.65 51.04,49.4 C57.15,49.06 59.41,50.98 57.93,53.44 C53.97,60.05 35.33,54.24 35.33,54.24 L35.13,52.55 Z" fill="#FFA000"/>
  <path d="M118.56,64 C120.79,59.93 122.48,55.88 123.39,51.97 C123.9,49.8 124.26,47.74 124.52,45.74 L62.26,45.74 C62.86,54.08 58.69,56.12 58.69,56.12 L67.17,64 L118.56,64 Z" fill="#FFE02E"/>
  <path d="M58.11,53.46 C60.1,50.59 57.52,42.33 55.53,37.47 C52.39,29.78 47.44,25.53 45.43,26.7 C45.42,26.7 45.41,26.71 45.4,26.71 C43.97,27.22 43.48,29.08 44.51,30.2 C51.61,37.95 49.1,39.8 51.84,45.22 C53.43,48.37 55.15,48.72 56.86,50.05 C58.85,51.6 58.11,53.46 58.11,53.46 Z" fill="#FFF685"/>
  <path d="M114.36,51.89 C113.45,55.82 111.83,59.89 109.72,64 L118.56,64 C120.79,59.93 122.48,55.88 123.39,51.97 C123.9,49.8 124.26,47.74 124.52,45.74 L115.48,45.74 C115.22,47.7 114.86,49.74 114.36,51.89 Z" fill="#FFA000"/>
  <path d="M30.48,56.98 C27.08,55.46 25.09,50.14 24.81,47.31 C24.53,44.47 29.01,42.51 30,43.12 C31,43.73 36.15,52.69 36.15,54.05 C36.15,55.41 32.69,57.97 30.48,56.98 Z" fill="#FFF685"/>
  <path d="M15.46,61.59 C15.22,59.08 13.61,56.88 13.26,55.94 C12.27,53.27 11.62,50.47 11.38,47.63 C11.23,45.92 11.53,44.16 9.36,44.15 C7.3,44.15 6.06,44.73 5.32,45.8 C3.9,47.85 4.62,53.79 7.17,59.66 C9.33,64.64 13.07,69.72 13.07,69.72 C13.07,69.72 15.82,65.31 15.46,61.59 Z" fill="#FFF685"/>
</svg>
